X:1
T:Title
%%score { 1 | 2 }
L:1/8
Q:1/4=100
M:6/8
K:Ab
V:1 treble nm="Grand Piano"
V:2 bass 
V:1
 [CE]2 [CA] [Ec]2 [EA] | [FB]2 [DF] [FB]3 | GGG F2 G |[M:5/8] [DF]3 [CE]2 |[M:1/8] [CE] | %5
w: H.~C.~Clausen * * *|||||
[M:3/4] [CE]2 [CA] [Ec]2 [DB] |[M:15/16] [CA]->[CA][Ec][Fd]3/2- [Fd]3 |[M:3/4] cB A G2 B | [CA]6 | %9
w: ||||
 GG GG AB | A2 B c3 | [Ec][DB] [CA][CA] [B,G][CA] | c2 B B3 | EA B[Ec] [Ec][Ec] | %14
w: |||||
[M:7/8] [Ee]2 [Fd] [Fd]3 F |[M:3/4] Ec d c2 B | [CA]6 |] %17
w: |||
V:2
 [A,,A,]2 [A,,A,] [A,,A,]2 [C,A,] | [D,A,]2 [D,A,] [D,D]3 | %2
 [E,B,E][E,B,E][E,B,D] [E,G,D]2 [E,G,D] |[M:5/8] [A,,A,]-[A,,A,]- [A,,A,]3 |[M:1/8] [A,,A,] | %5
[M:3/4] [A,,A,]2 [A,,A,] [A,,A,]2 [A,,E,] |[M:15/16] [A,,E,]->[A,,E,][A,,A,][D,A,]3/2- [D,A,]3 | %7
[M:3/4] [E,A,E][E,DE] [E,CE] [E,B,D]2 [E,G,D] | [A,,A,]6 | %9
 [E,B,E][E,B,E] [E,B,E][E,B,E] [F,B,=D][G,B,_D] | [A,C]2 [A,D] [A,E]3 | %11
 [A,,A,][A,,A,] [A,,E,][A,,E,] [A,,E,][A,,A,] | [E,A,E]2 [E,G,E] [E,G,E]3 | %13
 [A,C][A,C] [A,D][A,,A,] [A,,A,][A,,A,] |[M:7/8] [C,A,]2 [D,A,] [D,A,]3 [D,A,D] | %15
[M:3/4] [E,A,C][E,A,E] [E,A,F] [E,A,E]2 [E,G,D] | [A,,A,]6 |] %17

